static/img/logo_numary.svg

<svg width="690" height="266" xmlns="http://www.w3.org/2000/svg" fill="none">
    <g>
        <path id="svg_2" fill="black" d="m40,199.612c26.1746,0 47.3933,-21.219 47.3933,-47.393c0,-26.175 -21.2187,-47.394 -47.3933,-47.394l0,94.787z"/>
        <path id="svg_3" fill="black" d="m87.3933,57.2009c-26.1746,0 -47.3933,21.2187 -47.3933,47.3931c0,26.175 21.2187,47.394 47.3933,47.394l0,-94.7871z"/>
        <path id="svg_4" fill="#13E07E" d="m76.2637,206.882c25.3773,-6.41 40.7533,-32.179 34.3433,-57.557c-6.41,-25.377 -32.1787,-40.753 -57.5562,-34.343l23.2129,91.9z"/>
        <path id="svg_5" fill="#13E07E" d="m87.3378,57.201c-25.3775,6.4101 -40.7537,32.1791 -34.3436,57.557c6.41,25.377 32.179,40.753 57.5568,34.343l-23.2132,-91.9z"/>
        <path id="svg_6" fill="black" d="m76.3198,206.918c26.1742,0 47.3932,-21.219 47.3932,-47.394c0,-26.174 -21.219,-47.393 -47.3932,-47.393l0,94.787z"/>
        <path id="svg_7" fill="black" d="m123.713,64.5063c-26.1745,0 -47.3932,21.2188 -47.3932,47.3937c0,26.174 21.2187,47.393 47.3932,47.393l0,-94.7867z"/>
        <text stroke="null" font-weight="bold" xml:space="preserve" text-anchor="start" font-family="'Inter'" font-size="110" stroke-width="0" id="svg_8" y="176.24645" x="152.16668" fill="#000000">Formance</text>
    </g>
</svg>

<svg width="690" height="266" viewBox="0 0 690 266" fill="none" xmlns="http://www.w3.org/2000/svg">
<path d="M241.423 85.9091V179H224.423L183.923 120.409H183.241V179H163.56V85.9091H180.832L221.014 144.455H221.832V85.9091H241.423ZM302.094 149.273V109.182H321.457V179H302.866V166.318H302.139C300.563 170.409 297.942 173.697 294.276 176.182C290.639 178.667 286.2 179.909 280.957 179.909C276.291 179.909 272.185 178.848 268.639 176.727C265.094 174.606 262.321 171.591 260.321 167.682C258.351 163.773 257.351 159.091 257.321 153.636V109.182H276.685V150.182C276.715 154.303 277.821 157.561 280.003 159.955C282.185 162.348 285.109 163.545 288.776 163.545C291.109 163.545 293.291 163.015 295.321 161.955C297.351 160.864 298.988 159.258 300.23 157.136C301.503 155.015 302.124 152.394 302.094 149.273ZM336.946 179V109.182H355.401V121.5H356.219C357.673 117.409 360.098 114.182 363.491 111.818C366.885 109.455 370.946 108.273 375.673 108.273C380.461 108.273 384.537 109.47 387.901 111.864C391.264 114.227 393.507 117.439 394.628 121.5H395.355C396.779 117.5 399.355 114.303 403.082 111.909C406.84 109.485 411.279 108.273 416.401 108.273C422.916 108.273 428.204 110.348 432.264 114.5C436.355 118.621 438.401 124.47 438.401 132.045V179H419.082V135.864C419.082 131.985 418.052 129.076 415.991 127.136C413.931 125.197 411.355 124.227 408.264 124.227C404.749 124.227 402.007 125.348 400.037 127.591C398.067 129.803 397.082 132.727 397.082 136.364V179H378.31V135.455C378.31 132.03 377.325 129.303 375.355 127.273C373.416 125.242 370.855 124.227 367.673 124.227C365.522 124.227 363.582 124.773 361.855 125.864C360.158 126.924 358.81 128.424 357.81 130.364C356.81 132.273 356.31 134.515 356.31 137.091V179H336.946ZM473.605 180.318C469.151 180.318 465.181 179.545 461.696 178C458.211 176.424 455.454 174.106 453.423 171.045C451.423 167.955 450.423 164.106 450.423 159.5C450.423 155.621 451.135 152.364 452.56 149.727C453.984 147.091 455.923 144.97 458.378 143.364C460.832 141.758 463.62 140.545 466.741 139.727C469.893 138.909 473.196 138.333 476.651 138C480.711 137.576 483.984 137.182 486.469 136.818C488.954 136.424 490.757 135.848 491.878 135.091C492.999 134.333 493.56 133.212 493.56 131.727V131.455C493.56 128.576 492.651 126.348 490.832 124.773C489.045 123.197 486.499 122.409 483.196 122.409C479.711 122.409 476.938 123.182 474.878 124.727C472.817 126.242 471.454 128.152 470.787 130.455L452.878 129C453.787 124.758 455.575 121.091 458.241 118C460.908 114.879 464.348 112.485 468.56 110.818C472.802 109.121 477.711 108.273 483.287 108.273C487.166 108.273 490.878 108.727 494.423 109.636C497.999 110.545 501.166 111.955 503.923 113.864C506.711 115.773 508.908 118.227 510.514 121.227C512.12 124.197 512.923 127.758 512.923 131.909V179H494.56V169.318H494.014C492.893 171.5 491.393 173.424 489.514 175.091C487.635 176.727 485.378 178.015 482.741 178.955C480.105 179.864 477.06 180.318 473.605 180.318ZM479.151 166.955C481.999 166.955 484.514 166.394 486.696 165.273C488.878 164.121 490.59 162.576 491.832 160.636C493.075 158.697 493.696 156.5 493.696 154.045V146.636C493.09 147.03 492.257 147.394 491.196 147.727C490.166 148.03 488.999 148.318 487.696 148.591C486.393 148.833 485.09 149.061 483.787 149.273C482.484 149.455 481.302 149.621 480.241 149.773C477.969 150.106 475.984 150.636 474.287 151.364C472.59 152.091 471.272 153.076 470.332 154.318C469.393 155.53 468.923 157.045 468.923 158.864C468.923 161.5 469.878 163.515 471.787 164.909C473.726 166.273 476.181 166.955 479.151 166.955ZM527.946 179V109.182H546.719V121.364H547.446C548.719 117.03 550.855 113.758 553.855 111.545C556.855 109.303 560.31 108.182 564.219 108.182C565.188 108.182 566.234 108.242 567.355 108.364C568.476 108.485 569.461 108.652 570.31 108.864V126.045C569.401 125.773 568.143 125.53 566.537 125.318C564.931 125.106 563.461 125 562.128 125C559.279 125 556.734 125.621 554.491 126.864C552.279 128.076 550.522 129.773 549.219 131.955C547.946 134.136 547.31 136.652 547.31 139.5V179H527.946ZM594.401 205.182C591.946 205.182 589.643 204.985 587.491 204.591C585.37 204.227 583.613 203.758 582.219 203.182L586.582 188.727C588.855 189.424 590.901 189.803 592.719 189.864C594.567 189.924 596.158 189.5 597.491 188.591C598.855 187.682 599.961 186.136 600.81 183.955L601.946 181L576.901 109.182H597.264L611.719 160.455H612.446L627.037 109.182H647.537L620.401 186.545C619.098 190.303 617.325 193.576 615.082 196.364C612.87 199.182 610.067 201.348 606.673 202.864C603.279 204.409 599.188 205.182 594.401 205.182Z" fill="black"/>
<path d="M40 199.612C66.1746 199.612 87.3933 178.393 87.3933 152.219C87.3933 126.044 66.1746 104.825 40 104.825V199.612Z" fill="black"/>
<path d="M87.3933 57.2009C61.2187 57.2009 40 78.4196 40 104.594C40 130.769 61.2187 151.988 87.3933 151.988L87.3933 57.2009Z" fill="black"/>
<path d="M76.2637 206.882C101.641 200.472 117.017 174.703 110.607 149.325C104.197 123.948 78.4283 108.572 53.0508 114.982L76.2637 206.882Z" fill="#13E07E"/>
<path d="M87.3378 57.201C61.9603 63.6111 46.5841 89.3801 52.9942 114.758C59.4042 140.135 85.1732 155.511 110.551 149.101L87.3378 57.201Z" fill="#13E07E"/>
<path d="M76.3198 206.918C102.494 206.918 123.713 185.699 123.713 159.524C123.713 133.35 102.494 112.131 76.3198 112.131V206.918Z" fill="black"/>
<path d="M123.713 64.5063C97.5385 64.5063 76.3198 85.7251 76.3198 111.9C76.3198 138.074 97.5385 159.293 123.713 159.293L123.713 64.5063Z" fill="black"/>
</svg>
